X: 15818
T: Gooseberry Bush, The
R: reel
M: 4/4
K: Dmajor
|:ADFD EFGE|AGAB =c2 AG|AB=cA d^cAG|FGAF GBAF|
D2 D2 EFGE|ABcA d2 de|fdec dfed|cAGE FD D2:|
|:Ad d2 fded|=c2 cB cA G2|(3AcA AF GE E2|FGAB =cAGB|
Ad d2 fded|=c2 cB cA G2|ABcA d^cAG|ABcA d4:|
|:Adcd fdcd|efge aged|(3Bcd ef g2 ef|g3e dcAc|
d2 cd ABAG|FGAB =c2 AG|AB=cA d=cAG|ABcA d4:|

